src/actions/16/layer-new.svg

<svg viewBox="0 0 16 16" xmlns="http://www.w3.org/2000/svg">
 <defs>
  <style type="text/css">.ColorScheme-Text {
        color:#2e3440;
      }</style>
 </defs>
 <path class="ColorScheme-Text" d="m5 2-3 3h9l3-3h-9zm0 4-3 3h5 3l3-3h-3-3-2zm0.41406 1h1.5859 3 0.58398l-0.99805 1h-2.5859-2.584l0.99805-1zm5.5859 2v2h-2v1h2v2h1v-2h2v-1h-2v-2h-1z" fill="currentColor"/>
</svg>

<svg xmlns="http://www.w3.org/2000/svg" viewBox="0 0 16 16">
  <defs id="defs3051">
    <style type="text/css" id="current-color-scheme">
      .ColorScheme-Text {
        color:#2e3440;
      }
      </style>
  </defs>
 <path style="fill:currentColor;fill-opacity:1;stroke:none" 
     d="M 5 2 L 2 5 L 11 5 L 14 2 L 5 2 z M 5 6 L 2 9 L 7 9 L 10 9 L 13 6 L 10 6 L 7 6 L 5 6 z M 5.4140625 7 L 7 7 L 10 7 L 10.583984 7 L 9.5859375 8 L 7 8 L 4.4160156 8 L 5.4140625 7 z M 11 9 L 11 11 L 9 11 L 9 12 L 11 12 L 11 14 L 12 14 L 12 12 L 14 12 L 14 11 L 12 11 L 12 9 L 11 9 z "
     class="ColorScheme-Text"
     />
</svg>
